X:1
T:Saddle the Pony
N:Jig      Allan's #001
N:Trad/Anon
B:O'Neill's Music of Ireland (The 1850) Lyon & Healy, Chicago, 1903 edition
Z:FROM O'NEILL'S TO NOTEWORTHY, FROM NOTEWORTHY TO ABC, MIDI AND .TXT BY VINCE
BRENNAN Dec. 2002 (HTTP://WWW.SOSYOURMOM.COM)
I:abc2nwc
M:6/8
L:1/8
K:G
((3D/2E/2F/2)|GBA G2B|def gdB|GBA G2B|AFD AFD|
GBA G2B|def gfg|efe dBA|BGG G2:|
|:(B/2d/2)|efe edB|def {a}gfg|efe edc|dBA ABd|
efe edB|def {a}gfg|efe dBA|BGG G2:|
